src/24/panel/qjoypad-tray.svg

<svg xmlns="http://www.w3.org/2000/svg" width="24" height="24" version="1.1">
 <defs>
  <style id="current-color-scheme" type="text/css">
   .ColorScheme-Text { color:#dfdfdf; } .ColorScheme-Highlight { color:#4285f4; }
  </style>
 </defs>
 <path style="fill:currentColor" class="ColorScheme-Text" d="m 7.0249898,4.0000744 v 0.00195 c -2.4887083,0 -4.3597989,2.0010688 -4.4906099,4.4804688 L 2.0362913,17.943434 c -0.3150264,1.85 1.482765,3.017141 2.9943906,0.994141 0.9425788,-1.279 2.9689984,-3.9375 2.9689984,-3.9375 l 8.0006697,0.04102 2.988531,4.021484 c 1.499025,2.012 3.186861,0.357874 2.996345,-1.003906 L 21.48909,8.5840588 c 7.84e-4,-0.034624 0.0098,-0.066745 0.0098,-0.1015625 -3e-5,-2.4824 -2.002332,-4.4824219 -4.490641,-4.4824219 z m -1.0254769,2 h 2.0001674 v 2 H 9.9998477 V 10.000075 H 7.9996803 v 2 H 5.9995129 v -2 H 3.9993455 V 8.0000744 h 2.0001674 z m 11.0009211,0 a 1.0000837,1 0 0 1 1.000083,1 1.0000837,1 0 0 1 -1.000083,1 1.0000837,1 0 0 1 -1.000084,-1 1.0000837,1 0 0 1 1.000084,-1 z m -2.000168,2 A 1.0000837,1 0 0 1 16.00035,9.0000749 1.0000837,1 0 0 1 15.000266,10.000075 1.0000837,1 0 0 1 14.000183,9.0000749 1.0000837,1 0 0 1 15.000266,8.0000744 Z m 4.000335,0 a 1.0000837,1 0 0 1 1.000084,1.0000005 1.0000837,1 0 0 1 -1.000084,1.0000001 1.0000837,1 0 0 1 -1.000084,-1.0000001 1.0000837,1 0 0 1 1.000084,-1.0000005 z m -2.000167,2.0000006 a 1.0000837,1 0 0 1 1.000083,1 1.0000837,1 0 0 1 -1.000083,1 1.0000837,1 0 0 1 -1.000084,-1 1.0000837,1 0 0 1 1.000084,-1 z"/>
</svg>

<svg xmlns="http://www.w3.org/2000/svg" width="24" height="24"><defs><style id="current-color-scheme" type="text/css"></style></defs><path d="M7.025 4v.002c-2.489 0-4.36 2.001-4.49 4.48l-.499 9.461c-.315 1.85 1.483 3.018 2.995.995C5.973 17.658 8 15 8 15l8 .041 2.989 4.022c1.499 2.012 3.187.357 2.996-1.004l-.496-9.475c0-.035.01-.067.01-.102A4.477 4.477 0 0 0 17.009 4zM6 6h2v2h2v2H8v2H6v-2H4V8h2zm11 0a1 1 0 0 1 1 1 1 1 0 0 1-1 1 1 1 0 0 1-1-1 1 1 0 0 1 1-1zm-2 2a1 1 0 0 1 1 1 1 1 0 0 1-1 1 1 1 0 0 1-1-1 1 1 0 0 1 1-1zm4 0a1 1 0 0 1 1 1 1 1 0 0 1-1 1 1 1 0 0 1-1-1 1 1 0 0 1 1-1zm-2 2a1 1 0 0 1 1 1 1 1 0 0 1-1 1 1 1 0 0 1-1-1 1 1 0 0 1 1-1z" fill="currentColor" color="#d3dae3"/></svg>
